frontend/public/svg/interface/left-align.svg

<svg width="92" height="75" viewBox="0 0 92 75" fill="none" xmlns="http://www.w3.org/2000/svg">
<g clip-path="url(#clip0)">
<path d="M47.1616 66.0321C59.7126 65.6015 72.2637 65.176 84.8139 64.7564C85.9254 64.7202 87.0376 64.7952 88.1341 64.9795C90.285 65.3441 91.5356 66.6185 91.6383 68.3764C91.7377 70.0788 90.8583 71.3952 88.9226 72.1025C87.7818 72.5377 86.5858 72.8163 85.3684 72.9288C81.3813 73.2262 77.3857 73.5611 73.3915 73.5935C55.3867 73.7396 37.3817 73.7435 19.3767 73.8967C14.5017 73.9387 9.62661 74.304 4.75682 74.5652C3.03562 74.6571 1.94363 74.0777 1.37098 72.5752C0.711878 70.8443 1.27804 68.7902 3.02914 68.0596C4.65984 67.384 6.39888 67.0038 8.16417 66.9366C18.271 66.6133 28.3791 66.4045 38.4918 66.1918C41.3791 66.131 44.2684 66.1827 47.1564 66.1827L47.1616 66.0321Z" fill="black"/>
<path d="M13.4556 30.0558C10.8133 30.0558 8.36218 30.185 5.93117 30.0202C3.55672 29.8605 2.32371 28.676 2.26326 26.9426C2.21061 25.4271 3.32466 23.9207 5.36956 23.5806C8.75608 23.0161 12.1946 22.7498 15.6201 22.4246C37.1299 20.3783 58.7229 20.6395 80.2887 20.1694C81.9559 20.1314 83.6218 20.2789 85.256 20.609C87.3061 21.0293 88.3577 22.3004 88.4234 23.9491C88.4884 25.656 87.618 26.9232 85.5459 27.5135C83.9352 27.9341 82.2855 28.188 80.6227 28.2707C78.4062 28.4259 76.1768 28.4342 73.9525 28.4432C53.7102 28.5253 33.4606 28.327 13.4556 30.0558Z" fill="black"/>
<path d="M22.7696 51.1987C17.3265 50.9976 11.8815 50.8242 6.43971 50.583C3.70126 50.4615 2.79964 49.7595 2.62024 47.8631C2.43304 45.9028 3.5342 44.5145 5.8781 43.9287C6.74549 43.7419 7.63095 43.6507 8.51839 43.6566C18.4101 43.4154 28.3017 43.1542 38.1947 43.0049C39.8463 43.0192 41.4867 43.2764 43.0626 43.7679C43.7303 43.9889 44.3135 44.4087 44.7331 44.9706C45.1528 45.5324 45.3885 46.209 45.4085 46.9086C45.4285 47.6083 45.2318 48.2971 44.8449 48.8818C44.4581 49.4664 43.8999 49.9187 43.2459 50.1771C41.6046 50.812 39.8702 51.1767 38.1109 51.2568C33.0013 51.3945 27.8858 51.306 22.7709 51.306L22.7696 51.1987Z" fill="black"/>
<path d="M19.2308 8.07649C15.6818 8.25559 12.1341 8.47095 8.58312 8.5938C7.48897 8.71367 6.38164 8.58882 5.34218 8.22843C4.50553 7.75774 3.88301 6.98498 3.60348 6.07023C3.4707 5.52016 3.55182 4.94051 3.83064 4.44746C4.10947 3.9544 4.56537 3.58442 5.10692 3.41165C6.12765 2.98295 7.20868 2.71343 8.312 2.61254C17.1598 1.87977 26.0111 1.19007 34.8659 0.543521C36.3013 0.451891 37.7426 0.558501 39.1487 0.860323C39.8068 0.993726 40.4016 1.34145 40.8389 1.84854C41.2762 2.35563 41.5312 2.99317 41.5637 3.6605C41.5961 4.32782 41.404 4.98694 41.0179 5.53362C40.6318 6.0803 40.0736 6.48339 39.4315 6.67929C38.3847 7.02604 37.2987 7.24192 36.1984 7.32197C30.5486 7.67563 24.8949 7.96082 19.2418 8.26988L19.2308 8.07649Z" fill="black"/>
</g>
<defs>
<clipPath id="clip0">
<rect width="91" height="75" fill="white" transform="translate(0.777344)"/>
</clipPath>
</defs>
</svg>

<svg xmlns="http://www.w3.org/2000/svg" width="92" height="75" fill="none" viewBox="0 0 92 75"><g fill="#000" clip-path="url(#a)"><path d="M47.162 66.032q18.826-.646 37.652-1.276a16.7 16.7 0 0 1 3.32.224c2.151.364 3.402 1.638 3.504 3.396.1 1.703-.78 3.02-2.715 3.727a13.5 13.5 0 0 1-3.555.826c-3.987.297-7.982.632-11.977.665-18.004.146-36.01.15-54.014.303-4.875.042-9.75.407-14.62.668-1.721.092-2.813-.487-3.386-1.99-.66-1.73-.093-3.785 1.658-4.515a14.9 14.9 0 0 1 5.135-1.123c10.107-.324 20.215-.532 30.328-.745 2.887-.061 5.776-.01 8.664-.01zM13.456 30.056c-2.643 0-5.094.129-7.525-.036-2.374-.16-3.607-1.344-3.668-3.077-.052-1.516 1.062-3.022 3.107-3.362 3.386-.565 6.825-.831 10.25-1.156 21.51-2.047 43.103-1.785 64.669-2.256 1.667-.038 3.333.11 4.967.44 2.05.42 3.102 1.691 3.167 3.34.065 1.707-.805 2.974-2.877 3.564-1.61.421-3.26.675-4.923.758-2.217.155-4.446.163-6.67.172-20.243.082-40.492-.116-60.497 1.613m9.314 21.143c-5.443-.201-10.888-.375-16.33-.616-2.739-.121-3.64-.823-3.82-2.72-.187-1.96.914-3.349 3.258-3.934a12 12 0 0 1 2.64-.272c9.892-.242 19.784-.503 29.677-.652a16.8 16.8 0 0 1 4.868.763c.667.22 1.25.64 1.67 1.203a3.4 3.4 0 0 1 .112 3.91 3.43 3.43 0 0 1-1.6 1.296c-1.64.635-3.375 1-5.134 1.08-5.11.138-10.225.049-15.34.049zM19.23 8.076c-3.548.18-7.096.395-10.647.518a7.4 7.4 0 0 1-3.24-.366 3.73 3.73 0 0 1-1.74-2.158 2.23 2.23 0 0 1 .228-1.623 2.25 2.25 0 0 1 1.276-1.035 10.8 10.8 0 0 1 3.205-.8Q21.585 1.515 34.866.545a15.7 15.7 0 0 1 4.283.316 3.03 3.03 0 0 1 1.69.989 2.998 2.998 0 0 1-1.407 4.83 13.4 13.4 0 0 1-3.234.643c-5.65.354-11.303.639-16.956.948z"/></g><defs><clipPath id="a"><path fill="#fff" d="M.777 0h91v75h-91z"/></clipPath></defs></svg>
